Adwaita++/status/16/media-playlist-repeat-song-symbolic-rtl.svg

<svg height="16" width="16" xmlns="http://www.w3.org/2000/svg">
  <g fill="#474747">
    <path d="m9.98 8.99a1 1 0 0 0 -.687.303l-2.707 2.707 2.707 2.707a1 1 0 1 0 1.414-1.414l-1.293-1.293 1.293-1.293a1 1 0 0 0 -.726-1.717z"/>
    <path d="m1 9.005v.995c0 1.645 1.356 3 3 3h1v-2h-1c-.571 0-1-.429-1-1v-.983zm8.008-4.005h2.992c.572 0 1 .429 1 1v4c0 .571-.428 1-1 1h-4v2h4c1.645 0 3-1.355 3-3v-4c0-1.645-1.355-3-3-3h-2.98z"/>
    <path d="m10 9h1v1h-1zm0 5h1v1h-1zm-6-14a4 4 0 1 0 0 8 4 4 0 0 0 0-8zm-1 2h2v4h-2v-2h-1v-1z"/>
  </g>
</svg>

<svg xmlns="http://www.w3.org/2000/svg" width="16" height="16">
    <g color="#000" fill="#474747">
        <path d="M9.98 8.99a1 1 0 0 0-.687.303L6.586 12l2.707 2.707a1 1 0 1 0 1.414-1.414L9.414 12l1.293-1.293a1 1 0 0 0-.726-1.717z" style="line-height:normal;font-variant-ligatures:normal;font-variant-position:normal;font-variant-caps:normal;font-variant-numeric:normal;font-variant-alternates:normal;font-feature-settings:normal;text-indent:0;text-align:start;text-decoration-line:none;text-decoration-style:solid;text-decoration-color:#000;text-transform:none;text-orientation:mixed;shape-padding:0;isolation:auto;mix-blend-mode:normal" font-weight="400" font-family="sans-serif" white-space="normal" overflow="visible"/>
        <path d="M1 9.005V10c0 1.645 1.356 3 3 3h1v-2H4c-.571 0-1-.429-1-1v-.983zM9.008 5H12c.572 0 1 .429 1 1v4c0 .571-.428 1-1 1H8v2h4c1.645 0 3-1.355 3-3V6c0-1.645-1.355-3-3-3H9.02z" style="line-height:normal;-inkscape-font-specification:Sans;text-indent:0;text-align:start;text-decoration-line:none;text-transform:none;marker:none" font-weight="400" font-family="Sans" overflow="visible"/>
        <path d="M10 9h1v1h-1zM10 14h1v1h-1zM4 0a4 4 0 1 0 0 8 4 4 0 0 0 0-8zM3 2h2v4H3V4H2V3z" style="marker:none" overflow="visible"/>
    </g>
</svg>
